X:245
T:Admiral Mitchel's Reel. WM129
M:C
L:1/8
Q:180
C:*
S:Wm.Mittell,1799
R:Reel
O:England
A:Kent
N:
D:
H:
Z:C.G.P
W:
K:G
d|BFGD B,G,GB,|CA,AF FDAc|BGGD B,G,DB,|CEDF GG,G,d|!
(B/A/G/F/) GD B,G,DB,|CEAG FDAc|(Bc/d/) GB EFcE|FDcA BGG||!
d|(g/f/g/a/) gd BGdB|ceag fddf|(g/f/g/a/) gd edcB|cAdc BGGd|!
(g/f/g/a/) gd BGdB|cAag fddf|gbab gdeB|cAdc BGG|]
